resources/svg/house-thin.svg

<svg xmlns="http://www.w3.org/2000/svg" viewBox="0 0 256 256" fill="currentColor"><path d="M208,219.999h-.001l-48.00683-.00634a12.01365,12.01365,0,0,1-11.99805-12v-48.001a4.00426,4.00426,0,0,0-4-4h-32a4.00427,4.00427,0,0,0-4,4v48.001a12.01386,12.01386,0,0,1-11.999,12L48.002,219.999a11.99893,11.99893,0,0,1-12.002-12V115.53857a12.02234,12.02234,0,0,1,3.92773-8.8789L119.9209,33.92529a11.95376,11.95376,0,0,1,16.14551-.001l80.00586,72.73584A12.02554,12.02554,0,0,1,220,115.53906v92.46a11.99893,11.99893,0,0,1-12,12ZM111.99414,147.9917h32a12.01343,12.01343,0,0,1,12,12v48.001a4.00438,4.00438,0,0,0,3.999,4L208,211.999h0a4.0002,4.0002,0,0,0,4-4v-92.46a4.0106,4.0106,0,0,0-1.30957-2.96045L130.68555,39.84375a3.98585,3.98585,0,0,0-5.38282.001L45.30957,112.5791A4.00407,4.00407,0,0,0,44,115.53857V207.999a4.00018,4.00018,0,0,0,4.001,4l47.99316-.00634a4.00458,4.00458,0,0,0,4-4v-48.001A12.01343,12.01343,0,0,1,111.99414,147.9917Z"/></svg>

<svg xmlns="http://www.w3.org/2000/svg" viewBox="0 0 256 256" fill="currentColor"><path d="M208,220H160a12,12,0,0,1-12-12V160a4,4,0,0,0-4-4H112a4,4,0,0,0-4,4v48a12,12,0,0,1-12,12H48a11.9,11.9,0,0,1-8.5-3.5A12.3,12.3,0,0,1,36,208V115.5a11.8,11.8,0,0,1,3.9-8.8l80-72.8a12,12,0,0,1,16.2,0l80,72.8a11.8,11.8,0,0,1,3.9,8.8V208a12,12,0,0,1-12,12Zm-96-72h32a12,12,0,0,1,12,12v48a4,4,0,0,0,4,4h48a4.1,4.1,0,0,0,4-4V115.5a3.9,3.9,0,0,0-1.3-2.9l-80-72.8a4.1,4.1,0,0,0-5.4,0l-80,72.8a3.9,3.9,0,0,0-1.3,2.9V208a4.1,4.1,0,0,0,4,4H96a4,4,0,0,0,4-4V160A12,12,0,0,1,112,148Z"/></svg>
